src/topics/icons/myth.svg

<svg height="113" preserveAspectRatio="xMidYMid" viewBox="0 0 256 113" width="256" xmlns="http://www.w3.org/2000/svg"><path d="m99.5862069 1.65521495h-17.6551724l-36.1379311 61.93262585-14.2068965-61.93262585h-16.9655172l-14.6206897 82.76074735h14.0689655l8.9655173-50.6219905c.275862-1.9310841 1.2413793-8.2760747 1.2413793-8.2760747s.8275862 6.207056 1.2413793 8.2760747l11.4482758 50.6219905h10.6206897l29.3793103-50.6219905c1.1034483-1.9310841 3.5862069-7.1725981 4-8.0002056-.275862.9655421-1.3793103 6.4829252-1.6551724 8.0002056l-8.9655172 50.6219905h14.6206896zm57.6551721 35.72505595h-15.034482l-3.724138 20.5522522c-2.068966 11.5865046-8.275862 16.0004112-13.103449 16.0004112-3.862069 0-5.517241-2.3448879-5.517241-6.0691215 0-7.7243364 4.965517-15.3107383 4.965517-22.2074672 0-6.4829252-4.689655-9.5174859-10.068965-9.5174859-4.137931 0-8.689655 1.2414112-11.310345 2.8966261v5.7932523c.965517-.2758691 2.206896-.6896729 3.586207-.6896729 1.517241 0 2.620689.9655421 2.620689 2.8966262 0 5.6553177-5.241379 16.8280186-5.241379 24.6902896 0 8.1381402 5.103448 14.069327 14.068966 14.069327 6.068965 0 12.827586-3.8621682 16.827586-9.6554205l-1.793104 10.2071589c-1.931034 11.1727008-7.310344 14.8969346-14.482758 14.8969346-6.206897 0-10.344828-1.3793459-16.275862-5.2415141l-1.103449 11.1727011c4.965518 2.896626 11.586207 5.103579 17.793104 5.103579 13.931034 0 25.517241-5.793252 29.241379-26.8972427zm40.965518 0h-10.758621l2.758621-16.0004112-15.310345 1.655215-2.482759 14.3451962h-6.758621l-1.655172 9.3795513h6.758621l-3.724138 20.966056c-2.068966 11.7244392 3.724138 17.6556261 13.37931 17.6556261 5.931035 0 10.344828-1.7931495 13.103448-3.8621682l-1.103448-7.3105327c-1.655172 1.1034766-3.448276 1.7931495-5.793103 1.7931495-4.137931 0-5.24138-3.3104298-4.275862-9.2416167l3.448275-20.000514h10.758621zm57.793103 45.2425418v-6.0691214c-.827586.2758691-2.068966.8276074-3.448276.8276074-1.517241 0-2.758621-1.1034766-2.758621-2.8966261 0-5.6553178 4.551725-16.8280186 4.551725-24.6902896 0-8.1381402-5.103449-13.9313925-14.068966-13.9313925-6.068965 0-12.827586 3.7242336-16.827586 9.6554205l7.862069-45.518411-15.310345 1.65521495-14.62069 82.76074735h15.034483l3.724138-20.6901869c2.068966-11.5865046 8.413793-16.0004111 13.103448-16.0004111 3.862069 0 5.655173 2.3448878 5.655173 6.0691214 0 7.7243365-4.275862 15.3107383-4.275862 22.2074672 0 6.4829252 4.827586 9.3795514 10.344827 9.3795514 4.827586 0 8.551724-1.3793458 11.034483-2.7586916z"/></svg>

<?xml version="1.0" encoding="UTF-8" standalone="no"?>
<svg width="256px" height="113px" viewBox="0 0 256 113" version="1.1" xmlns="http://www.w3.org/2000/svg" xmlns:xlink="http://www.w3.org/1999/xlink" preserveAspectRatio="xMidYMid">
    <g>
        <path d="M99.5862069,1.65521495 L81.9310345,1.65521495 L45.7931034,63.5878408 L31.5862069,1.65521495 L14.6206897,1.65521495 L0,84.4159623 L14.0689655,84.4159623 L23.0344828,33.7939718 C23.3103448,31.8628877 24.2758621,25.5178971 24.2758621,25.5178971 C24.2758621,25.5178971 25.1034483,31.7249531 25.5172414,33.7939718 L36.9655172,84.4159623 L47.5862069,84.4159623 L76.9655172,33.7939718 C78.0689655,31.8628877 80.5517241,26.6213737 80.9655172,25.7937662 C80.6896552,26.7593083 79.5862069,32.2766914 79.3103448,33.7939718 L70.3448276,84.4159623 L84.9655172,84.4159623 L99.5862069,1.65521495 L99.5862069,1.65521495 Z M157.241379,37.3802709 L142.206897,37.3802709 L138.482759,57.9325231 C136.413793,69.5190277 130.206897,73.9329343 125.37931,73.9329343 C121.517241,73.9329343 119.862069,71.5880464 119.862069,67.8638128 C119.862069,60.1394764 124.827586,52.5530745 124.827586,45.6563456 C124.827586,39.1734204 120.137931,36.1388597 114.758621,36.1388597 C110.62069,36.1388597 106.068966,37.3802709 103.448276,39.0354858 L103.448276,44.8287381 C104.413793,44.552869 105.655172,44.1390652 107.034483,44.1390652 C108.551724,44.1390652 109.655172,45.1046073 109.655172,47.0356914 C109.655172,52.6910091 104.413793,63.86371 104.413793,71.725981 C104.413793,79.8641212 109.517241,85.795308 118.482759,85.795308 C124.551724,85.795308 131.310345,81.9331398 135.310345,76.1398875 L133.517241,86.3470464 C131.586207,97.5197472 126.206897,101.243981 119.034483,101.243981 C112.827586,101.243981 108.689655,99.8646351 102.758621,96.0024669 L101.655172,107.175168 C106.62069,110.071794 113.241379,112.278747 119.448276,112.278747 C133.37931,112.278747 144.965517,106.485495 148.689655,85.3815043 L157.241379,37.3802709 L157.241379,37.3802709 Z M198.206897,37.3802709 L187.448276,37.3802709 L190.206897,21.3798597 L174.896552,23.0350747 L172.413793,37.3802709 L165.655172,37.3802709 L164,46.7598222 L170.758621,46.7598222 L167.034483,67.7258782 C164.965517,79.4503174 170.758621,85.3815043 180.413793,85.3815043 C186.344828,85.3815043 190.758621,83.5883548 193.517241,81.5193361 L192.413793,74.2088034 C190.758621,75.31228 188.965517,76.0019529 186.62069,76.0019529 C182.482759,76.0019529 181.37931,72.6915231 182.344828,66.7603362 L185.793103,46.7598222 L196.551724,46.7598222 L198.206897,37.3802709 L198.206897,37.3802709 Z M256,82.6228127 L256,76.5536913 C255.172414,76.8295604 253.931034,77.3812987 252.551724,77.3812987 C251.034483,77.3812987 249.793103,76.2778221 249.793103,74.4846726 C249.793103,68.8293548 254.344828,57.656654 254.344828,49.794383 C254.344828,41.6562428 249.241379,35.8629905 240.275862,35.8629905 C234.206897,35.8629905 227.448276,39.5872241 223.448276,45.518411 L231.310345,0 L216,1.65521495 L201.37931,84.4159623 L216.413793,84.4159623 L220.137931,63.7257754 C222.206897,52.1392708 228.551724,47.7253643 233.241379,47.7253643 C237.103448,47.7253643 238.896552,50.0702521 238.896552,53.7944857 C238.896552,61.5188222 234.62069,69.105224 234.62069,76.0019529 C234.62069,82.4848781 239.448276,85.3815043 244.965517,85.3815043 C249.793103,85.3815043 253.517241,84.0021585 256,82.6228127 L256,82.6228127 Z" fill="#000000"></path>
    </g>
</svg>
